badges/playerfm-light.svg

<svg width="128" height="40" viewBox="0 0 128 40" fill="none" xmlns="http://www.w3.org/2000/svg">
<rect x="0.5" y="0.5" width="127" height="39" rx="4.5" fill="white"/>
<path d="M10.5247 29.4753C8.68315 27.6337 8 24.6337 8 20C8 15.3663 8.68315 12.3662 10.5247 10.5247C12.3662 8.68315 15.3663 8 20 8C24.6337 8 27.6337 8.68315 29.4753 10.5247C31.3168 12.3662 32 15.3663 32 20C32 24.6337 31.3168 27.6337 29.4753 29.4753C27.6337 31.3168 24.6337 32 20 32C15.3663 32 12.3662 31.3168 10.5247 29.4753Z" fill="white"/>
<path d="M20 30.5C25.799 30.5 30.5 25.799 30.5 20C30.5 14.201 25.799 9.5 20 9.5C14.201 9.5 9.5 14.201 9.5 20C9.5 25.799 14.201 30.5 20 30.5Z" fill="#BD1C24"/>
<path fill-rule="evenodd" clip-rule="evenodd" d="M20.0163 14.311C20.2324 15.1107 19.7592 15.9342 18.9594 16.1502C18.2842 16.3326 17.6689 16.6894 17.1751 17.1847C16.6814 17.68 16.3265 18.2964 16.1462 18.9721C15.9659 19.6478 15.9664 20.3591 16.1478 21.0346C16.3291 21.71 16.6849 22.3259 17.1794 22.8204C17.674 23.315 18.2899 23.6707 18.9653 23.8521C19.6408 24.0335 20.352 24.034 21.0277 23.8537C21.7035 23.6734 22.3199 23.3185 22.8152 22.8248C23.3105 22.331 23.6672 21.7157 23.8496 21.0405C24.0657 20.2407 24.8892 19.7676 25.6889 19.9836C26.4887 20.1997 26.9619 21.0232 26.7458 21.8229C26.4262 23.006 25.8011 24.0842 24.9332 24.9494C24.0654 25.8146 22.9853 26.4363 21.8012 26.7523C20.6172 27.0682 19.3709 27.0673 18.1874 26.7495C17.0038 26.4317 15.9246 25.8083 15.0581 24.9417C14.1916 24.0752 13.5682 22.996 13.2504 21.8125C12.9326 20.6289 12.9317 19.3826 13.2476 18.1986C13.5636 17.0146 14.1854 15.9345 15.0506 15.0666C15.9158 14.1987 16.994 13.5737 18.177 13.2541C18.9768 13.038 19.8003 13.5112 20.0163 14.311Z" fill="white"/>
<path fill-rule="evenodd" clip-rule="evenodd" d="M21.4333 12.45C21.5386 12.1212 21.8905 11.9402 22.2192 12.0455C23.562 12.4757 24.782 13.2218 25.7769 14.2211C26.7717 15.2204 27.5123 16.4438 27.9366 17.7885C28.0404 18.1177 27.8578 18.4688 27.5286 18.5726C27.1994 18.6765 26.8484 18.4938 26.7445 18.1646C26.3804 17.0106 25.7448 15.9607 24.891 15.103C24.0372 14.2454 22.9902 13.6051 21.8378 13.2359C21.5091 13.1305 21.328 12.7787 21.4333 12.45Z" fill="white"/>
<path fill-rule="evenodd" clip-rule="evenodd" d="M21.0619 14.4722C21.1838 14.1493 21.5444 13.9863 21.8674 14.1082C22.7824 14.4536 23.6103 14.9958 24.2927 15.6964C24.9751 16.397 25.4953 17.2389 25.8165 18.1626C25.9299 18.4887 25.7575 18.8449 25.4315 18.9582C25.1054 19.0716 24.7492 18.8992 24.6359 18.5732C24.3748 17.8223 23.952 17.138 23.3973 16.5685C22.8426 15.9991 22.1696 15.5584 21.4259 15.2776C21.103 15.1557 20.94 14.7951 21.0619 14.4722Z" fill="white"/>
<path fill-rule="evenodd" clip-rule="evenodd" d="M20.6888 16.5535C20.8289 16.2381 21.1982 16.0959 21.5137 16.2359C22.5175 16.6817 23.3168 17.489 23.7524 18.4972C23.8893 18.8141 23.7435 19.1819 23.4266 19.3188C23.1097 19.4558 22.7419 19.3099 22.605 18.993C22.2939 18.2731 21.7232 17.6966 21.0064 17.3784C20.6909 17.2383 20.5487 16.869 20.6888 16.5535Z" fill="white"/>
<path d="M39.7486 14.5V8.31818H40.4972V13.8359H43.3707V14.5H39.7486ZM44.4332 14.5V9.86364H45.1456V14.5H44.4332ZM44.7955 9.09091C44.6566 9.09091 44.5369 9.04362 44.4363 8.94904C44.3377 8.85446 44.2884 8.74077 44.2884 8.60795C44.2884 8.47514 44.3377 8.36145 44.4363 8.26687C44.5369 8.17229 44.6566 8.125 44.7955 8.125C44.9343 8.125 45.053 8.17229 45.1516 8.26687C45.2522 8.36145 45.3026 8.47514 45.3026 8.60795C45.3026 8.74077 45.2522 8.85446 45.1516 8.94904C45.053 9.04362 44.9343 9.09091 44.7955 9.09091ZM49.7344 10.902L49.0945 11.0831C49.0543 10.9764 48.9949 10.8728 48.9164 10.7722C48.8399 10.6696 48.7353 10.585 48.6025 10.5186C48.4697 10.4522 48.2996 10.419 48.0924 10.419C47.8086 10.419 47.5722 10.4844 47.383 10.6152C47.1959 10.744 47.1023 10.908 47.1023 11.1072C47.1023 11.2843 47.1667 11.4242 47.2955 11.5268C47.4243 11.6294 47.6255 11.715 47.8992 11.7834L48.5874 11.9524C49.0019 12.053 49.3108 12.207 49.5141 12.4142C49.7173 12.6195 49.8189 12.8841 49.8189 13.2081C49.8189 13.4737 49.7425 13.7112 49.5895 13.9205C49.4386 14.1297 49.2273 14.2947 48.9557 14.4155C48.684 14.5362 48.3681 14.5966 48.0079 14.5966C47.535 14.5966 47.1436 14.494 46.8337 14.2887C46.5238 14.0835 46.3276 13.7836 46.2451 13.3892L46.9212 13.2202C46.9856 13.4697 47.1073 13.6568 47.2864 13.7816C47.4676 13.9064 47.704 13.9688 47.9958 13.9688C48.3278 13.9688 48.5914 13.8983 48.7866 13.7575C48.9838 13.6146 49.0824 13.4435 49.0824 13.2443C49.0824 13.0833 49.0261 12.9485 48.9134 12.8398C48.8007 12.7292 48.6276 12.6467 48.3942 12.5923L47.6215 12.4112C47.1969 12.3106 46.885 12.1547 46.6858 11.9434C46.4886 11.7301 46.39 11.4634 46.39 11.1435C46.39 10.8819 46.4634 10.6504 46.6103 10.4492C46.7592 10.248 46.9615 10.09 47.217 9.97532C47.4746 9.86062 47.7664 9.80327 48.0924 9.80327C48.5512 9.80327 48.9114 9.90388 49.173 10.1051C49.4366 10.3063 49.6237 10.572 49.7344 10.902ZM52.9076 9.86364V10.4673H50.5049V9.86364H52.9076ZM51.2052 8.75284H51.9175V13.1719C51.9175 13.3731 51.9467 13.524 52.0051 13.6246C52.0654 13.7232 52.1419 13.7897 52.2345 13.8239C52.329 13.8561 52.4287 13.8722 52.5333 13.8722C52.6118 13.8722 52.6762 13.8681 52.7265 13.8601C52.7768 13.85 52.817 13.842 52.8472 13.8359L52.9921 14.4759C52.9438 14.494 52.8764 14.5121 52.7899 14.5302C52.7033 14.5503 52.5937 14.5604 52.4608 14.5604C52.2596 14.5604 52.0624 14.5171 51.8692 14.4306C51.6781 14.344 51.5191 14.2122 51.3923 14.0352C51.2675 13.8581 51.2052 13.6347 51.2052 13.3651V8.75284ZM55.8732 14.5966C55.4265 14.5966 55.0411 14.498 54.7172 14.3008C54.3952 14.1016 54.1467 13.8239 53.9716 13.4677C53.7985 13.1095 53.712 12.6929 53.712 12.218C53.712 11.7431 53.7985 11.3246 53.9716 10.9624C54.1467 10.5981 54.3902 10.3144 54.7021 10.1112C55.016 9.90589 55.3822 9.80327 55.8008 9.80327C56.0423 9.80327 56.2807 9.84351 56.5162 9.92401C56.7516 10.0045 56.9659 10.1353 57.1591 10.3164C57.3523 10.4955 57.5062 10.733 57.6209 11.0288C57.7356 11.3246 57.793 11.6888 57.793 12.1214V12.4233H54.2191V11.8075H57.0685C57.0685 11.5459 57.0162 11.3125 56.9116 11.1072C56.8089 10.902 56.6621 10.74 56.4709 10.6213C56.2817 10.5025 56.0584 10.4432 55.8008 10.4432C55.517 10.4432 55.2715 10.5136 55.0643 10.6545C54.859 10.7933 54.7011 10.9744 54.5904 11.1978C54.4797 11.4212 54.4244 11.6606 54.4244 11.9162V12.3267C54.4244 12.6768 54.4847 12.9737 54.6055 13.2172C54.7282 13.4586 54.8983 13.6428 55.1156 13.7695C55.3329 13.8943 55.5855 13.9567 55.8732 13.9567C56.0604 13.9567 56.2294 13.9305 56.3803 13.8782C56.5333 13.8239 56.6651 13.7434 56.7757 13.6367C56.8864 13.5281 56.9719 13.3932 57.0323 13.2322L57.7205 13.4254C57.6481 13.6589 57.5263 13.8641 57.3553 14.0412C57.1842 14.2163 56.973 14.3531 56.7214 14.4517C56.4699 14.5483 56.1871 14.5966 55.8732 14.5966ZM59.589 11.7109V14.5H58.8766V9.86364H59.5648V10.5881H59.6252C59.7338 10.3526 59.8989 10.1635 60.1202 10.0206C60.3416 9.87571 60.6273 9.80327 60.9775 9.80327C61.2914 9.80327 61.5661 9.86766 61.8015 9.99645C62.0369 10.1232 62.2201 10.3164 62.3509 10.576C62.4817 10.8336 62.5471 11.1596 62.5471 11.554V14.5H61.8347V11.6023C61.8347 11.238 61.7401 10.9543 61.551 10.7511C61.3618 10.5458 61.1022 10.4432 60.7722 10.4432C60.5448 10.4432 60.3416 10.4925 60.1625 10.5911C59.9854 10.6897 59.8455 10.8336 59.7429 11.0227C59.6403 11.2119 59.589 11.4413 59.589 11.7109ZM68.1229 14.5966C67.7044 14.5966 67.3371 14.497 67.0212 14.2978C66.7073 14.0985 66.4618 13.8198 66.2847 13.4616C66.1096 13.1035 66.0221 12.6849 66.0221 12.206C66.0221 11.723 66.1096 11.3014 66.2847 10.9412C66.4618 10.581 66.7073 10.3013 67.0212 10.1021C67.3371 9.90288 67.7044 9.80327 68.1229 9.80327C68.5415 9.80327 68.9077 9.90288 69.2216 10.1021C69.5376 10.3013 69.7831 10.581 69.9581 10.9412C70.1352 11.3014 70.2238 11.723 70.2238 12.206C70.2238 12.6849 70.1352 13.1035 69.9581 13.4616C69.7831 13.8198 69.5376 14.0985 69.2216 14.2978C68.9077 14.497 68.5415 14.5966 68.1229 14.5966ZM68.1229 13.9567C68.4409 13.9567 68.7025 13.8752 68.9077 13.7122C69.113 13.5492 69.2649 13.3349 69.3635 13.0692C69.4621 12.8036 69.5114 12.5159 69.5114 12.206C69.5114 11.8961 69.4621 11.6073 69.3635 11.3397C69.2649 11.072 69.113 10.8557 68.9077 10.6907C68.7025 10.5257 68.4409 10.4432 68.1229 10.4432C67.805 10.4432 67.5434 10.5257 67.3381 10.6907C67.1329 10.8557 66.9809 11.072 66.8823 11.3397C66.7837 11.6073 66.7344 11.8961 66.7344 12.206C66.7344 12.5159 66.7837 12.8036 66.8823 13.0692C66.9809 13.3349 67.1329 13.5492 67.3381 13.7122C67.5434 13.8752 67.805 13.9567 68.1229 13.9567ZM72.0235 11.7109V14.5H71.3112V9.86364H71.9994V10.5881H72.0597C72.1684 10.3526 72.3334 10.1635 72.5548 10.0206C72.7761 9.87571 73.0619 9.80327 73.412 9.80327C73.7259 9.80327 74.0006 9.86766 74.2361 9.99645C74.4715 10.1232 74.6546 10.3164 74.7854 10.576C74.9162 10.8336 74.9816 11.1596 74.9816 11.554V14.5H74.2693V11.6023C74.2693 11.238 74.1747 10.9543 73.9855 10.7511C73.7964 10.5458 73.5368 10.4432 73.2068 10.4432C72.9794 10.4432 72.7761 10.4925 72.597 10.5911C72.42 10.6897 72.2801 10.8336 72.1775 11.0227C72.0748 11.2119 72.0235 11.4413 72.0235 11.7109Z" fill="black"/>
<path d="M39.5412 30.5V17.7727H43.8416C44.8401 17.7727 45.6563 17.9529 46.2901 18.3134C46.9281 18.6697 47.4005 19.1523 47.707 19.7614C48.0136 20.3704 48.1669 21.0498 48.1669 21.7997C48.1669 22.5496 48.0136 23.2311 47.707 23.8443C47.4046 24.4574 46.9364 24.9463 46.3026 25.3109C45.6687 25.6713 44.8567 25.8516 43.8665 25.8516H40.7841V24.4844H43.8168C44.5004 24.4844 45.0493 24.3663 45.4636 24.1301C45.8779 23.894 46.1783 23.575 46.3647 23.1731C46.5553 22.7671 46.6506 22.3093 46.6506 21.7997C46.6506 21.2901 46.5553 20.8344 46.3647 20.4325C46.1783 20.0307 45.8758 19.7158 45.4574 19.4879C45.0389 19.2559 44.4838 19.1399 43.7919 19.1399H41.0824V30.5H39.5412ZM51.6673 17.7727V30.5H50.2007V17.7727H51.6673ZM56.9125 30.7237C56.3076 30.7237 55.7587 30.6098 55.2657 30.3819C54.7727 30.1499 54.3811 29.8164 54.0911 29.3814C53.8011 28.9422 53.6561 28.4119 53.6561 27.7905C53.6561 27.2436 53.7638 26.8003 53.9793 26.4606C54.1947 26.1167 54.4826 25.8474 54.8431 25.6527C55.2035 25.458 55.6013 25.313 56.0363 25.2177C56.4754 25.1183 56.9167 25.0395 57.36 24.9815C57.94 24.907 58.4102 24.851 58.7706 24.8137C59.1352 24.7723 59.4004 24.704 59.5661 24.6087C59.736 24.5134 59.8209 24.3477 59.8209 24.1115V24.0618C59.8209 23.4486 59.6531 22.9722 59.3175 22.6325C58.9861 22.2927 58.4827 22.1229 57.8074 22.1229C57.1072 22.1229 56.5583 22.2762 56.1606 22.5827C55.7628 22.8893 55.4832 23.2166 55.3216 23.5646L53.9296 23.0675C54.1781 22.4875 54.5096 22.0359 54.9239 21.7127C55.3423 21.3854 55.798 21.1576 56.2911 21.0291C56.7882 20.8965 57.2771 20.8303 57.7577 20.8303C58.0643 20.8303 58.4164 20.8675 58.8141 20.9421C59.216 21.0125 59.6034 21.1596 59.9763 21.3833C60.3533 21.6071 60.6661 21.9447 60.9146 22.3963C61.1632 22.8479 61.2875 23.4528 61.2875 24.2109V30.5H59.8209V29.2074H59.7463C59.6469 29.4145 59.4812 29.6362 59.2492 29.8723C59.0171 30.1085 58.7085 30.3094 58.3232 30.4751C57.9379 30.6409 57.4677 30.7237 56.9125 30.7237ZM57.1362 29.4062C57.7162 29.4062 58.2051 29.2923 58.6029 29.0645C59.0047 28.8366 59.3072 28.5424 59.5102 28.182C59.7173 27.8216 59.8209 27.4425 59.8209 27.0447V25.7024C59.7587 25.777 59.622 25.8453 59.4107 25.9075C59.2036 25.9655 58.9633 26.0173 58.6899 26.0629C58.4206 26.1043 58.1575 26.1416 57.9006 26.1747C57.6479 26.2037 57.4428 26.2286 57.2854 26.2493C56.9042 26.299 56.5479 26.3798 56.2165 26.4917C55.8892 26.5994 55.624 26.763 55.421 26.9826C55.2222 27.198 55.1227 27.4922 55.1227 27.8651C55.1227 28.3746 55.3112 28.7599 55.6883 29.021C56.0694 29.2778 56.5521 29.4062 57.1362 29.4062ZM64.3172 34.0795C64.0686 34.0795 63.847 34.0588 63.6523 34.0174C63.4575 33.9801 63.3229 33.9428 63.2483 33.9055L63.6212 32.6129C63.9775 32.7041 64.2923 32.7372 64.5658 32.7124C64.8392 32.6875 65.0816 32.5653 65.2929 32.3457C65.5083 32.1303 65.7051 31.7802 65.8833 31.2955L66.1567 30.5497L62.6269 20.9545H64.2178L66.8527 28.5611H66.9521L69.5871 20.9545H71.178L67.1262 31.892C66.9439 32.3851 66.7181 32.7931 66.4488 33.1163C66.1795 33.4436 65.8667 33.686 65.5104 33.8434C65.1582 34.0008 64.7605 34.0795 64.3172 34.0795ZM76.5241 30.6989C75.6044 30.6989 74.811 30.4959 74.144 30.0898C73.4811 29.6797 72.9695 29.108 72.609 28.3746C72.2527 27.6372 72.0746 26.7796 72.0746 25.8018C72.0746 24.8241 72.2527 23.9624 72.609 23.2166C72.9695 22.4667 73.4708 21.8826 74.1129 21.4641C74.7592 21.0415 75.5133 20.8303 76.375 20.8303C76.8722 20.8303 77.3631 20.9131 77.8478 21.0788C78.3326 21.2446 78.7738 21.5138 79.1715 21.8867C79.5692 22.2554 79.8862 22.7443 80.1223 23.3533C80.3585 23.9624 80.4766 24.7122 80.4766 25.603V26.2244H73.1186V24.9567H78.9851C78.9851 24.4181 78.8774 23.9375 78.6619 23.5149C78.4506 23.0923 78.1482 22.7588 77.7546 22.5144C77.3652 22.2699 76.9053 22.1477 76.375 22.1477C75.7908 22.1477 75.2854 22.2927 74.8587 22.5827C74.4361 22.8686 74.1109 23.2415 73.883 23.7013C73.6551 24.1612 73.5412 24.6542 73.5412 25.1804V26.0256C73.5412 26.7464 73.6655 27.3575 73.9141 27.8588C74.1668 28.356 74.5169 28.7351 74.9643 28.9961C75.4118 29.253 75.9317 29.3814 76.5241 29.3814C76.9094 29.3814 77.2575 29.3275 77.5682 29.2198C77.883 29.108 78.1544 28.9422 78.3823 28.7227C78.6101 28.4989 78.7862 28.2214 78.9105 27.8899L80.3274 28.2876C80.1783 28.7682 79.9276 29.1908 79.5755 29.5554C79.2233 29.9158 78.7883 30.1976 78.2704 30.4006C77.7525 30.5994 77.1705 30.6989 76.5241 30.6989ZM82.4576 30.5V20.9545H83.8745V22.3963H83.9739C84.1479 21.924 84.4628 21.5408 84.9185 21.2466C85.3742 20.9525 85.888 20.8054 86.4597 20.8054C86.5674 20.8054 86.7021 20.8075 86.8636 20.8116C87.0252 20.8158 87.1474 20.822 87.2303 20.8303V22.3217C87.1806 22.3093 87.0666 22.2907 86.8885 22.2658C86.7145 22.2368 86.5301 22.2223 86.3354 22.2223C85.8714 22.2223 85.4571 22.3197 85.0925 22.5144C84.7321 22.705 84.4462 22.9701 84.2349 23.3098C84.0278 23.6454 83.9242 24.0286 83.9242 24.4595V30.5H82.4576ZM93.5895 30.5V17.7727H101.221V19.1399H95.1307V23.4403H100.649V24.8075H95.1307V30.5H93.5895ZM103.611 17.7727H105.45L109.775 28.3374H109.924L114.25 17.7727H116.089V30.5H114.647V20.8303H114.523L110.546 30.5H109.154L105.177 20.8303H105.052V30.5H103.611V17.7727Z" fill="black"/>
<rect x="0.5" y="0.5" width="127" height="39" rx="4.5" stroke="#A6A6A6"/>
</svg>

<svg xmlns="http://www.w3.org/2000/svg" width="128" height="40" fill="none" viewBox="0 0 128 40">
  <rect width="127" height="39" x=".5" y=".5" fill="#fff" rx="4.5"/>
  <rect width="127" height="39" x=".5" y=".5" stroke="#A6A6A6" rx="4.5"/>
  <path fill="#BD1C24" d="M20 32c6.627 0 12-5.373 12-12S26.627 8 20 8 8 13.373 8 20s5.373 12 12 12Z"/>
  <path fill="#fff" fill-rule="evenodd" d="M20.019 13.498A1.714 1.714 0 0 1 18.81 15.6a4.558 4.558 0 1 0 5.588 5.59 1.714 1.714 0 0 1 3.31.893 7.987 7.987 0 1 1-9.792-9.793 1.714 1.714 0 0 1 2.102 1.208Zm1.619-2.127a.714.714 0 0 1 .898-.462 10.076 10.076 0 0 1 6.534 6.563.714.714 0 1 1-1.362.43A8.647 8.647 0 0 0 22.1 12.27a.714.714 0 0 1-.462-.898Z" clip-rule="evenodd"/>
  <path fill="#fff" fill-rule="evenodd" d="M21.213 13.682a.714.714 0 0 1 .921-.416 7.633 7.633 0 0 1 4.513 4.634.714.714 0 0 1-1.349.47 6.203 6.203 0 0 0-3.668-3.767.714.714 0 0 1-.416-.92Zm-.426 2.379a.714.714 0 0 1 .943-.363 4.996 4.996 0 0 1 2.558 2.584.714.714 0 0 1-1.31.567 3.567 3.567 0 0 0-1.828-1.845.714.714 0 0 1-.363-.943Z" clip-rule="evenodd"/>
  <path fill="#000" d="M39.749 14.5V8.318h.748v5.518h2.874v.664h-3.622Zm4.684 0V9.864h.713V14.5h-.713Zm.362-5.41a.506.506 0 0 1-.359-.141.456.456 0 0 1-.148-.341c0-.133.05-.247.148-.341.1-.095.22-.142.36-.142.138 0 .257.047.356.142.1.094.15.208.15.341 0 .133-.05.246-.15.341a.496.496 0 0 1-.357.142Zm4.94 1.812-.64.181c-.04-.107-.1-.21-.179-.31a.865.865 0 0 0-.313-.254 1.14 1.14 0 0 0-.51-.1c-.284 0-.52.065-.71.196-.187.129-.28.293-.28.492a.51.51 0 0 0 .192.42c.13.102.33.188.604.256l.688.17c.415.1.724.254.927.461.203.206.305.47.305.794 0 .266-.077.503-.23.713-.15.209-.362.374-.633.495a2.33 2.33 0 0 1-.948.18c-.473 0-.864-.102-1.174-.307-.31-.205-.506-.505-.589-.9l.676-.169c.065.25.186.437.365.562.182.124.418.187.71.187.332 0 .595-.07.79-.211.198-.143.296-.314.296-.514a.54.54 0 0 0-.169-.404c-.112-.11-.285-.193-.519-.248l-.773-.18c-.424-.101-.736-.257-.935-.469a1.133 1.133 0 0 1-.296-.8c0-.261.073-.493.22-.694a1.5 1.5 0 0 1 .607-.474 2.13 2.13 0 0 1 .875-.172c.46 0 .82.1 1.081.302.264.201.45.467.561.797Zm3.173-1.038v.603h-2.403v-.603h2.403Zm-1.703-1.111h.712v4.419c0 .201.03.352.088.453.06.098.137.165.23.199a.92.92 0 0 0 .298.048c.079 0 .143-.004.194-.012l.12-.024.145.64a1.491 1.491 0 0 1-.531.085c-.201 0-.399-.044-.592-.13a1.177 1.177 0 0 1-.477-.396c-.125-.177-.187-.4-.187-.67V8.753Zm4.668 5.844c-.447 0-.832-.099-1.156-.296a1.99 1.99 0 0 1-.745-.833c-.174-.358-.26-.775-.26-1.25s.086-.893.26-1.256c.175-.364.418-.648.73-.85.314-.206.68-.309 1.099-.309.241 0 .48.04.715.121.236.08.45.211.643.392.193.18.347.417.462.713.115.296.172.66.172 1.092v.302h-3.574v-.616h2.85a1.52 1.52 0 0 0-.157-.7 1.183 1.183 0 0 0-.441-.486 1.234 1.234 0 0 0-.67-.178c-.284 0-.53.07-.737.212a1.39 1.39 0 0 0-.474.543c-.11.223-.166.463-.166.718v.41c0 .35.06.648.181.891.123.242.293.426.51.553.218.124.47.187.758.187.187 0 .356-.027.507-.079.153-.054.285-.135.396-.241.11-.109.196-.244.256-.405l.689.193a1.526 1.526 0 0 1-.366.616 1.78 1.78 0 0 1-.634.41 2.35 2.35 0 0 1-.848.146Zm3.716-2.886V14.5h-.712V9.864h.688v.724h.06a1.33 1.33 0 0 1 .495-.567c.222-.145.507-.218.858-.218.313 0 .588.065.823.193.236.127.42.32.55.58.13.258.196.584.196.978V14.5h-.712v-2.898c0-.364-.095-.648-.284-.85-.19-.206-.449-.309-.779-.309-.227 0-.43.05-.61.148a1.058 1.058 0 0 0-.42.432 1.43 1.43 0 0 0-.153.688Zm8.534 2.886c-.419 0-.786-.1-1.102-.3a2.018 2.018 0 0 1-.736-.835c-.175-.358-.263-.777-.263-1.256 0-.483.088-.905.263-1.265.177-.36.422-.64.736-.839.316-.2.683-.299 1.102-.299.418 0 .785.1 1.099.3.316.198.561.478.736.838.177.36.266.782.266 1.265 0 .479-.089.898-.266 1.256-.175.358-.42.636-.736.836a2.01 2.01 0 0 1-1.1.299Zm0-.64c.318 0 .58-.082.785-.245a1.44 1.44 0 0 0 .456-.643 2.47 2.47 0 0 0 .147-.863c0-.31-.049-.599-.147-.866a1.46 1.46 0 0 0-.456-.65c-.206-.164-.467-.247-.785-.247s-.58.083-.785.248a1.46 1.46 0 0 0-.456.649 2.487 2.487 0 0 0-.148.866c0 .31.05.598.148.863.099.266.25.48.456.643.205.163.467.245.785.245Zm3.9-2.246V14.5h-.712V9.864H72v.724h.06c.11-.235.274-.424.496-.567.221-.145.507-.218.857-.218.314 0 .589.065.824.193a1.3 1.3 0 0 1 .55.58c.13.258.196.584.196.978V14.5h-.713v-2.898c0-.364-.094-.648-.284-.85-.189-.206-.448-.309-.778-.309-.228 0-.43.05-.61.148a1.059 1.059 0 0 0-.42.432 1.43 1.43 0 0 0-.154.688ZM39.541 30.5V17.773h4.3c1 0 1.815.18 2.45.54.637.357 1.11.84 1.416 1.448.307.61.46 1.289.46 2.039 0 .75-.153 1.431-.46 2.044-.302.613-.77 1.102-1.404 1.467-.634.36-1.446.54-2.436.54h-3.083v-1.367h3.033c.683 0 1.232-.118 1.647-.354.414-.236.714-.555.9-.957.191-.406.287-.864.287-1.373 0-.51-.096-.966-.286-1.367a2.04 2.04 0 0 0-.908-.945c-.418-.232-.973-.348-1.665-.348h-2.71V30.5h-1.54Zm12.126-12.727V30.5h-1.466V17.773h1.466Zm5.245 12.95a3.878 3.878 0 0 1-1.646-.341 2.826 2.826 0 0 1-1.175-1c-.29-.44-.435-.97-.435-1.591 0-.547.108-.99.323-1.33a2.28 2.28 0 0 1 .864-.808 4.54 4.54 0 0 1 1.193-.435c.44-.1.88-.178 1.324-.236a56.63 56.63 0 0 1 1.41-.168c.365-.042.63-.11.796-.205.17-.096.255-.261.255-.498v-.05c0-.612-.168-1.089-.503-1.428-.332-.34-.835-.51-1.51-.51-.7 0-1.25.153-1.647.46-.398.306-.678.634-.84.982l-1.391-.498c.248-.58.58-1.031.994-1.354a3.727 3.727 0 0 1 1.367-.684 5.675 5.675 0 0 1 1.467-.199c.306 0 .658.038 1.056.112.402.07.79.218 1.162.441.377.224.69.562.939 1.013.248.452.373 1.057.373 1.815V30.5H59.82v-1.293h-.075a2.58 2.58 0 0 1-.497.665c-.232.236-.54.437-.926.603-.385.166-.855.249-1.41.249Zm.224-1.317c.58 0 1.07-.114 1.467-.341a2.328 2.328 0 0 0 1.218-2.02v-1.343c-.062.075-.199.143-.41.205-.207.058-.448.11-.721.156a32.691 32.691 0 0 1-1.405.186c-.38.05-.737.13-1.068.243a1.842 1.842 0 0 0-.796.49c-.199.216-.298.51-.298.883 0 .51.188.895.565 1.156.381.257.864.385 1.448.385Zm7.181 4.674c-.248 0-.47-.021-.665-.063a1.754 1.754 0 0 1-.404-.111l.373-1.293c.356.091.671.124.945.1a1.14 1.14 0 0 0 .727-.367c.215-.216.412-.566.59-1.05l.274-.746-3.53-9.596h1.59l2.636 7.607h.1l2.634-7.607h1.591l-4.052 10.938c-.182.493-.408.901-.677 1.224-.27.328-.582.57-.939.727-.352.158-.75.236-1.193.236Zm12.207-3.381c-.92 0-1.713-.203-2.38-.61a4.087 4.087 0 0 1-1.535-1.714c-.356-.738-.534-1.595-.534-2.573s.178-1.84.534-2.585c.36-.75.862-1.334 1.504-1.753.646-.422 1.4-.634 2.262-.634.497 0 .988.083 1.473.249a3.65 3.65 0 0 1 1.323.808c.398.368.715.857.951 1.466.237.61.355 1.36.355 2.25v.621h-7.358v-1.267h5.866c0-.539-.108-1.02-.323-1.442a2.435 2.435 0 0 0-.907-1c-.39-.245-.85-.367-1.38-.367-.584 0-1.09.145-1.516.435a2.862 2.862 0 0 0-.976 1.118c-.228.46-.342.953-.342 1.48v.845c0 .72.124 1.332.373 1.833a2.69 2.69 0 0 0 1.05 1.137c.448.257.968.385 1.56.385.385 0 .733-.053 1.044-.161.315-.112.586-.278.814-.497a2.26 2.26 0 0 0 .528-.833l1.417.398c-.149.48-.4.903-.751 1.267-.353.36-.788.643-1.306.846-.517.198-1.1.298-1.746.298Zm5.934-.199v-9.546h1.416v1.442h.1c.174-.472.489-.855.944-1.15a2.78 2.78 0 0 1 1.542-.44c.107 0 .242.002.404.006.161.004.283.01.366.018v1.492a4.398 4.398 0 0 0-.342-.056 3.364 3.364 0 0 0-.553-.044 2.6 2.6 0 0 0-1.242.292c-.36.191-.647.456-.858.796-.207.335-.31.719-.31 1.15v6.04h-1.467Zm11.132 0V17.773h7.631v1.367h-6.09v4.3h5.518v1.367h-5.518V30.5H93.59Zm10.021-12.727h1.839l4.325 10.564h.149l4.326-10.564h1.839V30.5h-1.442v-9.67h-.124l-3.977 9.67h-1.392l-3.977-9.67h-.125v9.67h-1.441V17.773Z"/>
</svg>
